app/assets/images/icons/plus_square.svg

<?xml version="1.0" encoding="UTF-8"?>
<svg width="16px" height="16px" viewBox="0 0 16 16" version="1.1" xmlns="http://www.w3.org/2000/svg" xmlns:xlink="http://www.w3.org/1999/xlink">
    <title>icon</title>
    <g id="icon" stroke="none" stroke-width="1" fill="none" fill-rule="evenodd">
        <g id="􀃝" fill="#000000" fill-rule="nonzero">
            <path d="M2.81092662,16 L13.1890734,16 C15.0401714,16 16,15.0401714 16,13.2147831 L16,2.78521693 C16,0.951258704 15.0401714,0 13.1890734,0 L2.81092662,0 C0.959828602,0 0,0.951258704 0,2.78521693 L0,13.2147831 C0,15.0487413 0.959828602,16 2.81092662,16 Z M3.83074451,7.99571505 C3.83074451,7.49866095 4.18211034,7.14729513 4.67916443,7.14729513 L7.18157472,7.14729513 L7.18157472,4.63631494 C7.18157472,4.14783074 7.52437065,3.78789502 8.01285485,3.78789502 C8.50990894,3.78789502 8.86127477,4.14783074 8.86127477,4.63631494 L8.86127477,7.14729513 L11.372255,7.14729513 C11.8607392,7.14729513 12.212105,7.49866095 12.212105,7.99571505 C12.212105,8.48419925 11.8607392,8.82699518 11.372255,8.82699518 L8.86127477,8.82699518 L8.86127477,11.3379754 C8.86127477,11.8264596 8.50990894,12.1778254 8.01285485,12.1778254 C7.52437065,12.1778254 7.18157472,11.8264596 7.18157472,11.3379754 L7.18157472,8.82699518 L4.67916443,8.82699518 C4.18211034,8.82699518 3.83074451,8.48419925 3.83074451,7.99571505 Z" id="Shape"></path>
        </g>
    </g>
</svg>

<svg width="16" height="16" xmlns="http://www.w3.org/2000/svg">
    <path d="M2.81 16h10.38c1.85 0 2.81-.96 2.81-2.785V2.785C16 .951 15.04 0 13.19 0H2.81C.96 0 0 .951 0 2.785v10.43C0 15.049.96 16 2.81 16Zm1.02-8.004c0-.497.352-.849.85-.849h2.502v-2.51c0-.49.342-.85.83-.85.498 0 .85.36.85.85v2.51h2.51c.489 0 .84.352.84.849 0 .488-.351.831-.84.831h-2.51v2.511c0 .488-.352.84-.85.84-.488 0-.83-.352-.83-.84V8.827H4.679c-.497 0-.848-.343-.848-.831Z"/>
</svg>
